X:1
T:The Galveston Flood
M:4/4
L:1/8
K:F
 AA| d2 A2 A2 A2| A2 A6| d2 A2 A2 A2| A8| dd A2 AA AA| A2 G2 G4| A2 G2 F2 E2|\
 D4 DD DD| F F2 D- D4-| D4 DD DD| G G2 D- D4-| D4 DD DD| A A2 A3 A2|\
 A2 A2 AA AA| A2 G2 F2 E2| D4||
